X:1
T:Title
%%score { ( 1 5 ) | ( 2 3 4 ) }
L:1/8
Q:1/4=96
M:4/4
K:G
V:1 treble nm="Grand Piano"
V:5 treble 
V:2 bass 
V:3 bass 
V:4 bass 
V:1
 [B,DG]2 B2 AF G2 | [B,DG]2 B2 AF G2 | G2 B2 [Ad]2 [FA]2 | [GB]AG-[EGc] [DFA]4 | [B,DG]2 B2 AF G2 | %5
w: Thomas~Morley * * * *|||||
 [B,DG]2 B2 AF G2 | z4 d2 B2 | [FBd]^cB_B [DF=B]4 | [Gd]2 z2 z4 | [GB]2 z2 z4 | %10
w: |||||
 [DGd]2 [Bd]2 [CEc]2 [DAc]2 | z4 G2 z2 | [G,D]2 .[G,B,G]2 [G,E]2 .[A,^CA]2 | %13
w: |||
 [A,F]2 .[B,^DB]2 [FA]2 G2 | [EA]2 [Fe]2 .[DGd]2 z F |[M:8/4] z2 F2 z4 z8 |[M:4/4] [CEG]8 | %17
w: ||||
 [B,DG]8 |] %18
w: |
V:2
 z2 D6 | z2[K:treble] D6 | [B,D]2 [G,DG]2[K:bass] [F,D]2 [D,D]2 | [G,D]2[K:bass] z2 z4 | z2 D6 | %5
 z2[K:treble] D6 | [G,B,D]2 [F,_B,F]2 [=B,F]2[K:bass] .[G,D]2 | z ED^C B,,4 | B,2 G,2 z ^G D,2 | %9
 z4[K:treble] D4[K:bass] | B,2 [G,B,]2 A,2 F,2 | G,2 ^C,2 z2 F2 | B,,2 z F C,2 z G | %13
 D,2 z F z2 E2 | C,2 [C,A,]2 z[K:treble] B[K:bass]E,D, |[M:8/4] z[K:treble] .c2[K:bass] C G,4 z8 | %16
[M:4/4] C,8 | G,8 |] %18
V:3
 z4 CA, B,2 | z4[K:treble] CA, B,2 | x4[K:bass] x4 | z F[K:bass]G,C, D,4 | z4 CA, B,2 | %5
 z4[K:treble] CA, B,2 | x6[K:bass] x2 | F,2 [F,F]2 z4 | z4 A,2 z2 | %9
 G,2 B,2[K:treble] z =F[K:bass] D,2 | x8 | z4 D,4 | z2 G,,2 z2 A,,2 | z2 B,,2 [E,B,]4 | %14
 z4 B,,2[K:treble][K:bass] z2 |[M:8/4] C,2[K:treble][K:bass] D,2 z4 z8 |[M:4/4] x8 | x8 |] %18
V:4
 G,8 | G,8[K:treble] | x4[K:bass] x4 | x2[K:bass] x6 | G,8 | G,8[K:treble] | x6[K:bass] x2 | x8 | %8
 x8 | x4[K:treble] x2[K:bass] x2 | x8 | x8 | x8 | x8 | x5[K:treble] x[K:bass] x2 | %15
[M:8/4] x[K:treble] x[K:bass] x14 |[M:4/4] x8 | x8 |] %18
V:5
 x8 | x8 | x8 | z2 .[DB]2 z4 | x8 | x8 | B2 ^c2 z ^C z E | x8 | D2- [D-Bd]2 [D-Ac][D-B] [DAc]2 | %9
 D2- [DGB]2 [FA]^G [FA]2 | x8 | [DB]2 [EGB]2 [A,A]4 | x8 | x8 | z4 z2 [B,G]2 | %15
[M:8/4] .[CEA]2 [DB]A [B,G]4 z8 |[M:4/4] x8 | x8 |] %18

